_includes/icons/ios-copyright.svg

<svg fill="#666" height="50" viewBox="0 0 50 50" width="50" xmlns="http://www.w3.org/2000/svg"><path d="m25 2c-12.690705 0-23 10.309295-23 23s10.309295 23 23 23 23-10.309295 23-23-10.309295-23-23-23zm0 2c11.609824 0 21 9.390176 21 21s-9.390176 21-21 21-21-9.390176-21-21 9.390176-21 21-21zm0 7c-7.72039 0-14 6.27961-14 14s6.27961 14 14 14c6.218645 0 11.499726-4.066356 13.318359-9.691406a1.0001 1.0001 0 0 0 -.953125-1.308594h-4.3125a1.0001 1.0001 0 0 0 -.894531.554688c-1.310529 2.632616-4.012174 4.445312-7.158203 4.445312-4.430666 0-8-3.569334-8-8s3.569334-8 8-8c3.147138 0 5.848684 1.812939 7.158203 4.445312a1.0001 1.0001 0 0 0 .894531.554688h4.3125a1.0001 1.0001 0 0 0 .953125-1.308594c-1.818633-5.62505-7.099714-9.691406-13.318359-9.691406zm0 2c4.822438 0 8.843102 2.909534 10.751953 7h-2.181641c-1.734436-2.964651-4.894322-5-8.570312-5-5.511334 0-10 4.488666-10 10s4.488666 10 10 10c3.675057 0 6.833099-2.03568 8.568359-5h2.183594c-1.908851 4.090466-5.929515 7-10.751953 7-6.63961 0-12-5.36039-12-12s5.36039-12 12-12z"/></svg>

<svg xmlns="http://www.w3.org/2000/svg" viewBox="0 0 50 50" width="50" height="50" fill="#666"><path style="line-height:normal;text-indent:0;text-align:start;text-decoration-line:none;text-decoration-style:solid;text-decoration-color:#000;text-transform:none;block-progression:tb;isolation:auto;mix-blend-mode:normal" d="M 25 2 C 12.309295 2 2 12.309295 2 25 C 2 37.690705 12.309295 48 25 48 C 37.690705 48 48 37.690705 48 25 C 48 12.309295 37.690705 2 25 2 z M 25 4 C 36.609824 4 46 13.390176 46 25 C 46 36.609824 36.609824 46 25 46 C 13.390176 46 4 36.609824 4 25 C 4 13.390176 13.390176 4 25 4 z M 25 11 C 17.27961 11 11 17.27961 11 25 C 11 32.72039 17.27961 39 25 39 C 31.218645 39 36.499726 34.933644 38.318359 29.308594 A 1.0001 1.0001 0 0 0 37.365234 28 L 33.052734 28 A 1.0001 1.0001 0 0 0 32.158203 28.554688 C 30.847674 31.187304 28.146029 33 25 33 C 20.569334 33 17 29.430666 17 25 C 17 20.569334 20.569334 17 25 17 C 28.147138 17 30.848684 18.812939 32.158203 21.445312 A 1.0001 1.0001 0 0 0 33.052734 22 L 37.365234 22 A 1.0001 1.0001 0 0 0 38.318359 20.691406 C 36.499726 15.066356 31.218645 11 25 11 z M 25 13 C 29.822438 13 33.843102 15.909534 35.751953 20 L 33.570312 20 C 31.835876 17.035349 28.67599 15 25 15 C 19.488666 15 15 19.488666 15 25 C 15 30.511334 19.488666 35 25 35 C 28.675057 35 31.833099 32.96432 33.568359 30 L 35.751953 30 C 33.843102 34.090466 29.822438 37 25 37 C 18.36039 37 13 31.63961 13 25 C 13 18.36039 18.36039 13 25 13 z"/></svg>
